assets/icons/24px/stroke/rectangle-left-filled-rounded-24px.svg

<svg width="24" height="24" viewBox="0 0 24 24" fill="none" xmlns="http://www.w3.org/2000/svg">
<path fill-rule="evenodd" clip-rule="evenodd" d="M5.93487 3C5.95673 3 5.97868 3 6.00069 3L18.0651 3C18.9519 2.99995 19.7158 2.99991 20.3276 3.08214C20.9832 3.17026 21.6116 3.36899 22.1213 3.87868C22.631 4.38835 22.8297 5.0167 22.9179 5.67221C23.0001 6.28388 23.0001 7.0477 23 7.9342V16.0658C23.0001 16.9523 23.0001 17.7161 22.9179 18.3278C22.8297 18.9833 22.631 19.6117 22.1213 20.1213C21.6117 20.631 20.9833 20.8297 20.3278 20.9179C19.7161 21.0001 18.9523 21.0001 18.0659 21H5.93414C5.04767 21.0001 4.28387 21.0001 3.67221 20.9179C3.0167 20.8297 2.38835 20.631 1.87868 20.1213C1.36902 19.6117 1.17028 18.9833 1.08215 18.3278C0.99991 17.7161 0.999953 16.9523 1 16.0658L1 8C1 7.97799 1 7.95604 1 7.93417C0.999953 7.04769 0.99991 6.28387 1.08215 5.67221C1.17028 5.0167 1.36902 4.38835 1.87868 3.87868C2.38838 3.36899 3.01683 3.17026 3.67241 3.08214C4.28417 2.99991 5.04815 2.99995 5.93487 3ZM3.93885 5.06431C3.50495 5.12264 3.36899 5.21681 3.2929 5.2929C3.21677 5.36902 3.12263 5.50497 3.06431 5.93871C3.00213 6.40122 3 7.02893 3 8V16C3 16.9711 3.00213 17.5988 3.06431 18.0613C3.12263 18.495 3.21677 18.631 3.2929 18.7071C3.36902 18.7832 3.50497 18.8774 3.93871 18.9357C4.40121 18.9979 5.02893 19 6 19H18C18.9711 19 19.5988 18.9979 20.0613 18.9357C20.495 18.8774 20.631 18.7832 20.7071 18.7071C20.7832 18.631 20.8774 18.495 20.9357 18.0613C20.9979 17.5988 21 16.9711 21 16V8C21 7.02893 20.9979 6.40122 20.9357 5.93871C20.8774 5.50497 20.7832 5.36902 20.7071 5.2929C20.631 5.21681 20.4951 5.12264 20.0612 5.06431C19.5985 5.00213 18.9706 5 17.9993 5H6.00069C5.02939 5 4.40149 5.00213 3.93885 5.06431Z" fill="white"/>
<path d="M12 16V8C12 6.11438 12 5.17157 11.4142 4.58579C10.8284 4 9.88553 4 7.99973 4H6.00027C4.11447 4 3.17157 4 2.58579 4.58579C2 5.17157 2 6.11438 2 8V16C2 17.8856 2 18.8284 2.58579 19.4142C3.17157 20 4.11438 20 6 20H8C9.88562 20 10.8284 20 11.4142 19.4142C12 18.8284 12 17.8856 12 16Z" fill="white"/>
</svg>

<svg width="24" height="24" fill="none" xmlns="http://www.w3.org/2000/svg"><path fill-rule="evenodd" clip-rule="evenodd" d="M5.935 3h12.13c.887 0 1.65 0 2.263.082.655.088 1.284.287 1.793.797.51.51.709 1.138.797 1.793C23 6.284 23 7.048 23 7.934v8.132c0 .886 0 1.65-.082 2.262-.088.655-.287 1.284-.797 1.793-.51.51-1.138.709-1.793.797-.612.082-1.376.082-2.262.082H5.934c-.886 0-1.65 0-2.262-.082-.655-.088-1.284-.287-1.793-.797-.51-.51-.709-1.138-.797-1.793C1 17.716 1 16.952 1 16.066V8v-.066c0-.886 0-1.65.082-2.262.088-.655.287-1.284.797-1.793.51-.51 1.138-.709 1.793-.797C4.284 3 5.048 3 5.935 3zM3.939 5.064c-.434.059-.57.153-.646.229-.076.076-.17.212-.229.646C3.002 6.4 3 7.029 3 8v8c0 .971.002 1.599.064 2.061.059.434.153.57.229.646.076.076.212.17.646.229C4.4 18.998 5.029 19 6 19h12c.971 0 1.599-.002 2.061-.064.434-.059.57-.153.646-.229.076-.076.17-.212.229-.646.062-.462.064-1.09.064-2.061V8c0-.971-.002-1.599-.064-2.061-.059-.434-.153-.57-.229-.646-.076-.076-.212-.17-.646-.229C19.6 5.002 18.971 5 18 5H6.001c-.972 0-1.6.002-2.062.064z" fill="#fff"/><path d="M12 16V8c0-1.886 0-2.828-.586-3.414C10.828 4 9.886 4 8 4H6c-1.886 0-2.828 0-3.414.586C2 5.172 2 6.114 2 8v8c0 1.886 0 2.828.586 3.414C3.172 20 4.114 20 6 20h2c1.886 0 2.828 0 3.414-.586C12 18.828 12 17.886 12 16z" fill="#fff"/></svg>
